icons/badge/question/square.svg

<svg width="32" height="32" viewBox="0 0 32 32" fill="none" xmlns="http://www.w3.org/2000/svg">
<path fill-rule="evenodd" clip-rule="evenodd" d="M2.66675 4.66669C2.66675 3.56212 3.56218 2.66669 4.66675 2.66669H27.3334C28.438 2.66669 29.3334 3.56212 29.3334 4.66669V27.3334C29.3334 28.4379 28.438 29.3334 27.3334 29.3334H4.66675C3.56218 29.3334 2.66675 28.4379 2.66675 27.3334V4.66669ZM27.3334 4.66669L4.66675 4.66669V27.3334H27.3334L27.3334 4.66669ZM14.5 23V20H17.5V23H14.5ZM14 13C14 12.1541 14.2108 11.7034 14.4571 11.4571C14.7034 11.2108 15.1541 11 16 11C16.9753 11 17.4308 11.1356 17.65 11.3C17.7914 11.406 18 11.6516 18 12.5C18 12.8955 17.8915 13.1089 17.7573 13.273C17.587 13.4811 17.3437 13.6523 16.9453 13.9179L16.905 13.9448C16.5558 14.1773 16.0723 14.4992 15.6948 14.9605C15.2665 15.4839 15 16.1455 15 17V18H17V17C17 16.6045 17.1085 16.3911 17.2427 16.227C17.413 16.0189 17.6563 15.8477 18.0547 15.5821L18.095 15.5552C18.4442 15.3227 18.9277 15.0008 19.3052 14.5395C19.7335 14.0161 20 13.3545 20 12.5C20 11.3484 19.7086 10.344 18.85 9.7C18.0692 9.11439 17.0247 9 16 9C14.8459 9 13.7966 9.28921 13.0429 10.0429C12.2892 10.7966 12 11.8459 12 13H14Z" fill="black"/>
</svg>

<svg width="32" height="32" viewBox="0 0 32 32" xmlns="http://www.w3.org/2000/svg">
    <path fill-rule="evenodd" d="M2.667 4.667a2 2 0 012-2h22.666a2 2 0 012 2v22.666a2 2 0 01-2 2H4.667a2 2 0 01-2-2V4.667zm24.666 0H4.667v22.666h22.666V4.667zM14.5 23v-3h3v3h-3zM14 13c0-.846.21-1.297.457-1.543.246-.246.697-.457 1.543-.457.975 0 1.43.136 1.65.3.141.106.35.352.35 1.2 0 .396-.108.609-.243.773-.17.208-.413.38-.812.645l-.04.027c-.35.232-.833.554-1.21 1.015-.428.524-.695 1.185-.695 2.04v1h2v-1c0-.395.108-.609.243-.773.17-.208.413-.38.812-.645l.04-.027c.35-.232.833-.554 1.21-1.015.428-.524.695-1.185.695-2.04 0-1.152-.291-2.156-1.15-2.8-.78-.586-1.825-.7-2.85-.7-1.154 0-2.203.29-2.957 1.043C12.289 10.797 12 11.846 12 13h2z"/>
</svg>
